neru-light-classic/32x32/apps/blinken.svg

<?xml version="1.0" encoding="UTF-8" standalone="no"?>
<svg
   xmlns:dc="http://purl.org/dc/elements/1.1/"
   xmlns:cc="http://creativecommons.org/ns#"
   xmlns:rdf="http://www.w3.org/1999/02/22-rdf-syntax-ns#"
   xmlns:svg="http://www.w3.org/2000/svg"
   xmlns="http://www.w3.org/2000/svg"
   xmlns:sodipodi="http://sodipodi.sourceforge.net/DTD/sodipodi-0.dtd"
   xmlns:inkscape="http://www.inkscape.org/namespaces/inkscape"
   height="32"
   width="32"
   version="1"
   id="svg16"
   sodipodi:docname="blinken.svg"
   inkscape:version="0.92.1 r">
  <metadata
     id="metadata22">
    <rdf:RDF>
      <cc:Work
         rdf:about="">
        <dc:format>image/svg+xml</dc:format>
        <dc:type
           rdf:resource="http://purl.org/dc/dcmitype/StillImage" />
      </cc:Work>
    </rdf:RDF>
  </metadata>
  <defs
     id="defs20" />
  <sodipodi:namedview
     pagecolor="#ffffff"
     bordercolor="#666666"
     borderopacity="1"
     objecttolerance="10"
     gridtolerance="10"
     guidetolerance="10"
     inkscape:pageopacity="0"
     inkscape:pageshadow="2"
     inkscape:window-width="1680"
     inkscape:window-height="963"
     id="namedview18"
     showgrid="false"
     inkscape:zoom="5.2149125"
     inkscape:cx="-3.6575928"
     inkscape:cy="12.91095"
     inkscape:window-x="0"
     inkscape:window-y="0"
     inkscape:window-maximized="1"
     inkscape:current-layer="svg16" />
  <g
     id="g4555">
    <path
       id="path4546"
       d="M 16 30.101562 L 16 16 L 1.8984375 16 L 1.8984375 24.527344 C 1.8984375 27.615995 4.3840055 30.101563 7.4726562 30.101562 L 16 30.101562 z "
       style="opacity:1;fill:#3c88e7;fill-opacity:1;fill-rule:evenodd;stroke:none;stroke-width:1.03534329;stroke-linecap:round;stroke-linejoin:bevel;stroke-miterlimit:4;stroke-dasharray:none;stroke-dashoffset:0;stroke-opacity:1" />
    <path
       id="path4549"
       d="M 30.101562 16 L 16 16 L 16 30.101562 L 24.527344 30.101562 C 27.615995 30.101563 30.101564 27.615995 30.101562 24.527344 L 30.101562 16 z "
       style="opacity:1;fill:#5dc15c;fill-opacity:1;fill-rule:evenodd;stroke:none;stroke-width:1.03534329;stroke-linecap:round;stroke-linejoin:bevel;stroke-miterlimit:4;stroke-dasharray:none;stroke-dashoffset:0;stroke-opacity:1" />
    <path
       id="path4543"
       d="M 16 1.8984375 L 16 16 L 30.101562 16 L 30.101562 7.4726562 C 30.101563 4.3840055 27.615995 1.8984375 24.527344 1.8984375 L 16 1.8984375 z "
       style="opacity:1;fill:#c2352a;fill-opacity:1;fill-rule:evenodd;stroke:none;stroke-width:1.03534329;stroke-linecap:round;stroke-linejoin:bevel;stroke-miterlimit:4;stroke-dasharray:none;stroke-dashoffset:0;stroke-opacity:1" />
    <path
       id="rect4497-3"
       d="M 1.8984375 16 L 16 16 L 16 1.8984375 L 7.4726562 1.8984375 C 4.3840054 1.8984375 1.8984375 4.3840054 1.8984375 7.4726562 L 1.8984375 16 z "
       style="opacity:1;fill:#e7a73c;fill-opacity:1;fill-rule:evenodd;stroke:none;stroke-width:1.03534329;stroke-linecap:round;stroke-linejoin:bevel;stroke-miterlimit:4;stroke-dasharray:none;stroke-dashoffset:0;stroke-opacity:1" />
  </g>
  <circle
     cy="16"
     cx="16"
     r="7"
     id="circle14"
     style="fill:#2e2e2e" />
</svg>

<svg xmlns="http://www.w3.org/2000/svg" height="32" width="32" version="1"><g fill-rule="evenodd"><path d="M16 30.102V16H1.898v8.527a5.561 5.561 0 0 0 5.575 5.575H16z" fill="#3c88e7"/><path d="M30.102 16H16v14.102h8.527a5.561 5.561 0 0 0 5.575-5.575V16z" fill="#5dc15c"/><path d="M16 1.898V16h14.102V7.473a5.561 5.561 0 0 0-5.575-5.575H16z" fill="#c2352a"/><path d="M1.898 16H16V1.898H7.473a5.561 5.561 0 0 0-5.575 5.575V16z" fill="#e7a73c"/></g><circle cy="16" cx="16" r="7" fill="#2e2e2e"/></svg>
